X: 150226
T: Owen Thomas' Reel
N: 186
C: BB
R: reel
Q: 1/8=380
M: 4/4
L: 1/8
K: Em
"Em"EBBA "C"GE"D"FD|"Em"EB,B,C "D"DFAF|"Em"EBBc "D"dBAd|"G"Bdeg "D"fagf|
"Em"eBBA "G"GFGA|"Em"Bded "Bm"BFAF|"Em"EB, B,2 "C"=CDEG|"D"FGAF "Em"E4 :|
"Em"Bdeg Bdeg|"D"fdfa "Bm"bfaf|"Em7"edBd "G"gfed|"Bm7"BFAF "C"GEG=c|
"Em"Be e2 "G"gfed|"C"=ce e2 "G"bagf|"C"g2 fe "D"f2d=c|"Bm7"BADF "Em"E4 :|
